dist/svgs/unicons/monochrome/medium-m.svg

<svg xmlns="http://www.w3.org/2000/svg" viewBox="0 0 24 24"><path class="uim-primary" d="M22,6.41668h-.791a.89762.89762,0,0,0-.709.69479v9.83021a.83938.83938,0,0,0,.709.64164H22V19.9167H14.83334V17.58332h1.50008V7.25h-.07353L12.75706,19.9167H10.04512L6.58751,7.25H6.5V17.58332H8V19.9167H2V17.58332h.76835A.841.841,0,0,0,3.5,16.94168V7.11139a.89588.89588,0,0,0-.73166-.69479H2V4.0833H9.50266L11.96593,13.25h.068L14.51976,4.0833H22V6.41668" data-name="Brand Logos"/></svg>

<svg xmlns="http://www.w3.org/2000/svg" viewBox="0 0 24 24"><path d="M22 6.417h-.791a.898.898 0 00-.709.694v9.83a.84.84 0 00.709.642H22v2.334h-7.167v-2.334h1.5V7.25h-.073l-3.503 12.667h-2.712L6.588 7.25H6.5v10.333H8v2.334H2v-2.334h.768a.841.841 0 00.732-.641v-9.83a.896.896 0 00-.732-.695H2V4.083h7.503l2.463 9.167h.068l2.486-9.167H22v2.334" data-name="Brand Logos"/></svg>
